X: 5
T:
C: Armand Aromin
H: 8/18/04
M: 4/4
L: 1/8
R: Air
K: Dmaj
de f2 (3fga e2 | de fg/2f/2 ed B2 | dB A2 FA B2-| Bc B6 |
de f2 (3fga e2 | de fg/2f/2 ed B2 | dB A2 FA E2 | D2 D6-:|
D2 z2 fg a2 | fg a2 b2 b2 | a2 z2 ef g2 | ef g2 a2 a2 |
g2 z2 de f2 | de f2 g2 g2 |1 f2 e2 a2 a2 | ^g2 a6 :|2 f2 e2 d2  c2-| cd d6 |]
